X: 1548
T: Honest John
B: australian traditional tunes wiki
M:6/8
L:1/8
R: Jig
Q: 3/8=100
K:G
V:1 
|:"G"b>bb"D"a3|"G"g>fgB3|"C"cBc ABc|"A7"ed^c"D"d3|"G"b>bb"D"a3|"G"g>fgB3|"D"cBc DEF|"G"G3G3:|
|:"D"DFA DFA|DFAf3|"G"gfg "D/Am"ABc|"Am"ecB"D"A3|"D/Am"DFA DFA|DFAf3|"G"gfg "A7"AB^c|"D"d3d3:|
% abcbook-tune_id 6342d53a75ce2c7bf57301f8


% abcbook-boost 0
% abcbook-tablature 
% abcbook-transpose 
% abcbook-lastupdated 1665324370471
% abcbook-soundfonts 
% abcbook-repeats 1
% NFF Book 2006

